svgs/thin/shield-cross.svg

<svg xmlns="http://www.w3.org/2000/svg" viewBox="0 0 512 512"><!--! Font Awesome Pro 6.0.0-alpha3 by @fontawesome - https://fontawesome.com License - https://fontawesome.com/license (Commercial License) --><path d="M466.5 83.71l-192-80C269.6 1.672 261.3 0 256.1 0C250.8 0 242.5 1.672 237.6 3.703L45.61 83.71C27.7 91.1 16 108.6 16 127.1C16 385.2 205.2 512 255.9 512C307.1 512 496 383.8 496 127.1C496 108.6 484.3 91.1 466.5 83.71zM255.1 496C212.1 496 32 374 32 127.1c0-12.99 7.734-24.57 19.75-29.53l191.1-79.99C246.7 17.21 252.8 16 256.1 16c3.188 0 9.383 1.232 12.29 2.441l192 80.02C472.3 103.4 480 114.1 480 127.1C480 405.6 270.9 496 255.1 496zM416 184h-152V64c0-4.406-3.594-8-8-8S248 59.59 248 64v120H96C91.59 184 88 187.6 88 192S91.59 200 96 200h152V448c0 4.406 3.594 8 8 8s8-3.594 8-8V200H416c4.406 0 8-3.594 8-8S420.4 184 416 184z"/></svg>

<svg xmlns="http://www.w3.org/2000/svg" viewBox="0 0 512 512"><!-- Font Awesome Pro 6.0.0-alpha2 by @fontawesome - https://fontawesome.com License - https://fontawesome.com/license (Commercial License) --><path d="M466.5 83.68L274.5 3.672C269.625 1.641 261.344 0 256.062 0C250.75 0 242.5 1.641 237.594 3.672L45.594 83.68C27.688 91.072 16 108.574 16 127.982C16 385.157 205.163 512 255.953 512C307.975 512 496 383.811 496 127.982C496 108.574 484.312 91.072 466.5 83.68ZM255.953 496C212.107 496 32 374.012 32 127.982C32 114.994 39.734 103.41 51.75 98.449L243.719 18.455C246.711 17.215 252.824 16 256.062 16C259.25 16 265.445 17.232 268.348 18.441L460.367 98.459C472.297 103.408 480 114.996 480 127.982C480 405.593 270.923 496 255.953 496ZM416 184H264V64C264 59.594 260.406 56 256 56S248 59.594 248 64V184H96C91.594 184 88 187.594 88 192S91.594 200 96 200H248V448C248 452.406 251.594 456 256 456S264 452.406 264 448V200H416C420.406 200 424 196.406 424 192S420.406 184 416 184Z "></path></svg>
